assets/icons/stop.svg

<svg width="25" height="25" viewBox="0 0 25 25" fill="none" xmlns="http://www.w3.org/2000/svg">
<g id="stop">
<path id="iconDefault" fill-rule="evenodd" clip-rule="evenodd" d="M4.375 6.66667C4.375 5.40101 5.40101 4.375 6.66667 4.375H18.3333C19.599 4.375 20.625 5.40101 20.625 6.66667V18.3333C20.625 19.599 19.599 20.625 18.3333 20.625H6.66667C5.40101 20.625 4.375 19.599 4.375 18.3333V6.66667ZM6.66667 5.625C6.09137 5.625 5.625 6.09137 5.625 6.66667V18.3333C5.625 18.9086 6.09137 19.375 6.66667 19.375H18.3333C18.9086 19.375 19.375 18.9086 19.375 18.3333V6.66667C19.375 6.09137 18.9086 5.625 18.3333 5.625H6.66667Z" fill="#18303F"/>
</g>
</svg>

<svg width="25" height="25" viewBox="0 0 25 25" fill="none"><g id="stop"><path id="iconDefault" fill-rule="evenodd" clip-rule="evenodd" d="M4.375 6.667a2.292 2.292 0 0 1 2.292-2.292h11.666a2.292 2.292 0 0 1 2.292 2.292v11.666a2.292 2.292 0 0 1-2.292 2.292H6.667a2.292 2.292 0 0 1-2.292-2.292V6.667Zm2.292-1.042c-.576 0-1.042.466-1.042 1.042v11.666c0 .576.466 1.042 1.042 1.042h11.666c.576 0 1.042-.466 1.042-1.042V6.667c0-.576-.466-1.042-1.042-1.042H6.667Z" fill="#18303F"/></g></svg>
